X: 4623
T: Bouzouki Player's Nightmare
R: reel
M: 4/4
K: Gmajor
|:f|gedc BGG2|DGBd cAAG|FADE FDFA|d^cde fdef|
gedc BGG2|DGBd cAAG|FADE FDag|fdef g3:|
|:^c|dDD2 FDFA|d^cde fdef|g2fg efde|^cdB^c AB^cA|
dDD2 FDFA|d^cde fdef|g2fg efde|^cAB^c d3:|
|:z|efed cAA2|BGG2 BGBd|efed cAA2|BAGB A2Bd|
efed cAA2|BGG2 BGBd|efed cAA2|BAGB A3:|

